Sources/FrostedUI/Resources/Icons.xcassets/addUser12.imageset/add-user-12.svg

<svg width="12" height="12" viewBox="0 0 12 12" fill="none" xmlns="http://www.w3.org/2000/svg" data-fui-icon="true">
  <path
    d="M9.2998 6.75C9.71402 6.75 10.0498 7.08579 10.0498 7.5V8.5498H11.0996C11.5138 8.5498 11.8495 8.88568 11.8496 9.2998C11.8496 9.71402 11.5138 10.0498 11.0996 10.0498H10.0498V11.0996C10.0498 11.5138 9.71402 11.8496 9.2998 11.8496C8.88568 11.8495 8.5498 11.5138 8.5498 11.0996V10.0498H7.5C7.08579 10.0498 6.75 9.71402 6.75 9.2998C6.75011 8.88568 7.08585 8.5498 7.5 8.5498H8.5498V7.5C8.5498 7.08585 8.88568 6.75011 9.2998 6.75ZM5.99902 6.2998C6.41317 6.2998 6.74891 6.63569 6.74902 7.0498C6.74902 7.46402 6.41324 7.7998 5.99902 7.7998C3.93224 7.80025 2.39955 9.28576 2.39941 10.9502C2.3992 11.3642 2.0635 11.7002 1.64941 11.7002C1.23558 11.6999 0.899625 11.364 0.899414 10.9502C0.899541 8.30755 3.26197 6.30026 5.99902 6.2998ZM6 0C7.51867 0.000131935 8.75 1.2313 8.75 2.75C8.75 4.2687 7.51867 5.49987 6 5.5C4.48133 5.49987 3.25 4.2687 3.25 2.75C3.25 1.2313 4.48133 0.000131935 6 0ZM6 1.5C5.30976 1.50013 4.75 2.05973 4.75 2.75C4.75 3.44027 5.30976 3.99987 6 4C6.69024 3.99987 7.25 3.44027 7.25 2.75C7.25 2.05973 6.69024 1.50013 6 1.5Z"
    fill="currentColor"
  />
</svg>

<svg xmlns="http://www.w3.org/2000/svg" width="12" height="12" fill="none" data-fui-icon="true" viewBox="0 0 12 12"><path fill="currentColor" d="M9.3 6.75a.75.75 0 0 1 .75.75v1.05h1.05a.75.75 0 0 1 0 1.5h-1.05v1.05a.75.75 0 0 1-1.5 0v-1.05H7.5a.75.75 0 1 1 0-1.5h1.05V7.5a.75.75 0 0 1 .75-.75M5.999 6.3a.75.75 0 0 1 0 1.5c-2.067 0-3.6 1.486-3.6 3.15a.75.75 0 0 1-1.5 0C.9 8.308 3.262 6.3 6 6.3M6 0a2.75 2.75 0 1 1 0 5.5A2.75 2.75 0 0 1 6 0m0 1.5A1.25 1.25 0 1 0 6 4a1.25 1.25 0 0 0 0-2.5"/></svg>
